src/img/icons/zoom.svg

<svg width="32" height="32" viewBox="0 0 32 32" fill="none" xmlns="http://www.w3.org/2000/svg">
<path d="M10.9997 13.0508H8.78098C8.48648 13.0508 8.23969 12.9508 8.04059 12.7506C7.8415 12.5504 7.74196 12.3022 7.74196 12.006C7.74196 11.7099 7.8415 11.4636 8.04059 11.2673C8.23969 11.0707 8.48648 10.9724 8.78098 10.9724H10.9997V8.78098C10.9997 8.48648 11.0999 8.23969 11.3004 8.0406C11.5006 7.8415 11.7488 7.74196 12.0449 7.74196C12.3408 7.74196 12.587 7.8415 12.7836 8.0406C12.9803 8.23969 13.0786 8.48648 13.0786 8.78098V10.9724H15.2695C15.564 10.9724 15.811 11.0725 16.0103 11.2727C16.2094 11.4729 16.309 11.721 16.309 12.0172C16.309 12.3134 16.2094 12.5597 16.0103 12.7563C15.811 12.9527 15.564 13.0508 15.2695 13.0508H13.0786V15.2695C13.0786 15.564 12.9785 15.811 12.7783 16.0103C12.5778 16.2094 12.3296 16.309 12.0337 16.309C11.7376 16.309 11.4912 16.2094 11.2946 16.0103C11.098 15.811 10.9997 15.564 10.9997 15.2695V13.0508ZM12.073 22.0679C9.25762 22.0679 6.87486 21.0934 4.92475 19.1444C2.97492 17.1954 2 14.8261 2 12.0366C2 9.24687 2.9745 6.87665 4.92351 4.92599C6.87251 2.97533 9.24383 2 12.0375 2C14.8311 2 17.203 2.97464 19.1531 4.92392C21.1035 6.87348 22.0786 9.24356 22.0786 12.0342C22.0786 13.2006 21.8802 14.329 21.4834 15.4193C21.0869 16.5096 20.5281 17.4842 19.807 18.3432L29.6956 28.1875C29.8949 28.3789 29.9974 28.6255 30.0029 28.9275C30.0081 29.2297 29.9057 29.4841 29.6956 29.6906C29.4857 29.8969 29.2323 30 28.9353 30C28.6386 30 28.3893 29.8951 28.1875 29.6852L18.3262 19.824C17.5017 20.5371 16.5449 21.0894 15.4557 21.481C14.3662 21.8722 13.2386 22.0679 12.073 22.0679ZM12.0561 19.9894C14.2734 19.9894 16.1517 19.2179 17.6909 17.6748C19.2301 16.1314 19.9998 14.2511 19.9998 12.0337C19.9998 9.81643 19.2301 7.93622 17.6909 6.39312C16.1517 4.85002 14.2734 4.07847 12.0561 4.07847C9.82939 4.07847 7.94312 4.85002 6.39726 6.39312C4.8514 7.93622 4.07847 9.81643 4.07847 12.0337C4.07847 14.2511 4.8514 16.1314 6.39726 17.6748C7.94312 19.2179 9.82939 19.9894 12.0561 19.9894Z" fill="#131212"/>
</svg>

<svg xmlns="http://www.w3.org/2000/svg" viewBox="0 0 32 32">
  <path fill="currentColor" d="M11 13.05H8.78c-.295 0-.541-.1-.74-.3-.2-.2-.299-.448-.299-.744s.1-.542.299-.739c.199-.196.445-.295.74-.295H11V8.781c0-.295.1-.541.3-.74.2-.2.449-.299.745-.299s.542.1.739.299c.196.199.295.445.295.74v2.191h2.19c.295 0 .542.1.741.3.2.2.299.449.299.745s-.1.543-.299.74a1.013 1.013 0 0 1-.74.294h-2.191v2.219c0 .294-.1.541-.3.74-.201.2-.45.299-.745.299A1.013 1.013 0 0 1 11 15.269v-2.218Zm1.073 9.018c-2.815 0-5.198-.975-7.148-2.924C2.975 17.195 2 14.826 2 12.037c0-2.79.974-5.16 2.924-7.111C6.873 2.976 9.244 2 12.037 2c2.794 0 5.166.975 7.116 2.924 1.95 1.95 2.926 4.32 2.926 7.11a9.823 9.823 0 0 1-.596 3.385 9.62 9.62 0 0 1-1.676 2.924l9.889 9.845c.199.19.301.438.307.74.005.302-.097.556-.307.763-.21.206-.464.309-.76.309a.996.996 0 0 1-.748-.315l-9.862-9.861a8.99 8.99 0 0 1-2.87 1.657 9.935 9.935 0 0 1-3.383.587Zm-.017-2.079c2.217 0 4.096-.771 5.635-2.314C19.23 16.13 20 14.25 20 12.034c0-2.218-.77-4.098-2.31-5.64-1.538-1.544-3.417-2.316-5.634-2.316-2.227 0-4.113.772-5.659 2.315-1.546 1.543-2.319 3.423-2.319 5.64 0 2.218.773 4.098 2.32 5.642 1.545 1.543 3.431 2.314 5.658 2.314Z"/>
</svg>
